icons/ambulatory_clinic.svg

<svg width="48" height="48" viewBox="0 0 48 48" fill="none" xmlns="http://www.w3.org/2000/svg">
<path fill-rule="evenodd" clip-rule="evenodd" d="M14 24V32H22V24H14ZM20 30V26H16V30H20Z" fill="black"/>
<path fill-rule="evenodd" clip-rule="evenodd" d="M19 6C16.3933 6 14.1749 7.66227 13.3469 9.98462H6V12.4662L10 15.4969V40H7C6.44772 40 6 40.4477 6 41C6 41.5523 6.44772 42 7 42H10V42.0154H38V42H41C41.5523 42 42 41.5523 42 41C42 40.4477 41.5523 40 41 40H38V15.5321L42.5 12.5014V9.98462H24.6531C23.8251 7.66227 21.6067 6 19 6ZM24.6586 14C24.8797 13.3744 25 12.7013 25 12L25 11.9846H39.687L36.6946 14H24.6586ZM23.4722 16C22.3736 17.2275 20.777 18 19 18C17.223 18 15.6264 17.2275 14.5278 16H12V40H24V24H34V40H36V16H23.4722ZM13 12C13 12.7013 13.1203 13.3744 13.3414 14H11.3361L8.67616 11.9846H13L13 12ZM20 11V9H18V11H16V13H18V15H20V13H22V11H20ZM32 26V40H26V26H32Z" fill="black"/>
</svg>

<svg
  xmlns="http://www.w3.org/2000/svg"
  width="24"
  height="24"
  viewBox="0 0 24 24"
  fill="none"
  stroke="currentColor"
  stroke-width="2"
  stroke-linecap="round"
  stroke-linejoin="round"
>
  <path
    fill-rule="evenodd"
    d="M14 24v8h8v-8zm6 6v-4h-4v4z"
    clip-rule="evenodd"
  />
  <path
    fill-rule="evenodd"
    d="M19 6a6 6 0 0 0-5.653 3.985H6v2.481l4 3.03V40H7a1 1 0 1 0 0 2h3v.015h28V42h3a1 1 0 1 0 0-2h-3V15.532l4.5-3.03V9.984H24.653A6 6 0 0 0 19 6m5.659 8A6 6 0 0 0 25 12v-.015h14.687L36.695 14zm-1.187 2A5.99 5.99 0 0 1 19 18a5.99 5.99 0 0 1-4.472-2H12v24h12V24h10v16h2V16zM13 12c0 .701.12 1.374.341 2h-2.005l-2.66-2.015H13zm7-1V9h-2v2h-2v2h2v2h2v-2h2v-2zm12 15v14h-6V26z"
    clip-rule="evenodd"
  />
</svg>
